X:1
T:Title
%%score ( 1 2 ) ( 3 4 )
L:1/8
Q:1/4=108
M:4/4
K:C
V:1 treble nm="Grand Piano, Soprano"
V:2 treble 
V:3 bass nm="Choir Pad, Maricopa, 87.87 D"
V:4 bass 
V:1
 C3 C [CE]2 C2 | [CE]2 [DF]2 [EG] [Ec]3 | [Fc] [FA]3 [Ec] [EG]3 | [CE]2 [CE]2 [B,D]4 | %4
w: By~James~Holmes~Rosecrans,~1899 * * *||||
 C3 C [CE]2 C2 | [CE]2 [DF]2 [EG] [Ec]3 | [Fc] [FA]3 [Ec] [EG]3 | [FB]2 [Fd]2 [Ec]4 | %8
w: ||||
 [EG]3 [FA] [EG]3 [FA] | [EG][Ge][Fd][Ec] [Fc]2 [FB]2 | [DF][CE][DF][EG] [FB]2 [FA]2 | G4 c2 z2 | %12
w: ||||
 [EG]3 [FA] [EG]3 [FA] | Gc[GB][Ac] [Fd]2 [FA]2 | [EG][EG][_E^F][=EG] [=FA]2 [FB]2 | [Ec]8 |] %16
w: ||||
V:2
 x8 | x8 | x8 | x8 | x8 | x8 | x8 | x8 | x8 | x8 | x8 | E6 z2 | x8 | E2 z2 z4 | x8 | x8 |] %16
V:3
 [C,E,]3 [C,E,] [C,G,]2 [C,E,]2 | [C,G,]2 [C,G,]2 [C,C] [C,G,]3 | [F,A,] [F,C]3 [C,C] [C,C]3 | %3
 [C,G,]2 [C,G,]2 G,4 | [C,E,]3 [C,E,] [C,G,]2 [C,E,]2 | [C,G,]2 [C,G,]2 [C,C] [C,G,]3 | %6
 [F,A,] [F,C]3 [C,C] [C,C]3 | [G,D]2 [G,B,]2 [C,C]4 | [C,C]3 [C,C] [C,C]3 [C,C] | %9
 [C,C]2 CG, [D,G,]2 [D,G,]2 | G,G,G,G, G,2 [G,B,]2 | C4 G,2 z2 | [C,C]3 [C,C] [C,C]3 [C,C] | %13
 CG,G,-[E,G,] [F,A,]2 [F,C]2 | [G,C][G,C][G,C][G,C] [G,B,]2 G,2 | [C,G,]8 |] %16
V:4
 x8 | x8 | x8 | x8 | x8 | x8 | x8 | x8 | x8 | z2 C,2 z4 | x8 | C,6 z2 | x8 | C,2 .D,2 z4 | x8 | %15
 x8 |] %16

